X:1
T:Title
%%score { 1 | ( 2 3 ) }
L:1/8
M:4/4
K:D
V:1 treble nm="Grand Piano"
V:2 bass 
V:3 bass 
V:1
 z4 z2[Q:1/4=108] [FA]2 | [Fd]3 [Fd] [Ec]3 [Gc] | [Fd]6 [EA]>G | F3 G A2 B2 |[M:3/4] E4 z2 | %5
[M:1/4] [CE]>E |[M:4/4] F3 F G3 G | A2 A2 B2 [Gc]>[Gc] | [Fd]3 [Ad] e2 c2 |[M:3/4] [Fd]4 z2 | %10
[M:1/4] d>d |[M:4/4] c2 B2 A2 G2 | G4 F2 d>c | B2 A2 G2 F2 |[M:3/4] F4 E2 |[M:1/4] [CE]>E | %16
[M:4/4] F3 F G3 G | A2 A2 B2 [Gc]>[Gc] | [Fd]3 [Ad] e2 c2 |[M:3/4] [Fd]4 z2 |] %20
V:2
 z4 z2 [D,A,]2 | [D,A,]3 [D,A,] [A,,A,]3 [A,,A,] | [D,A,]6 z z/ E/ | %3
 [D,A,D]3 [E,A,C] [F,A,D]2 [G,D]2 |[M:3/4] [A,C]4 z2 |[M:1/4] z z/ C/ | %6
[M:4/4] [D,A,D]3 [D,A,D] [E,A,C]3 [E,A,C] | [F,A,D]2 [F,A,D]2 [G,B,D]2 [E,A,]2 | %8
 [D,A,]3 [F,D][K:treble] [G,B,G]2 [A,E]2 |[M:3/4][K:bass] [D,A,]4 z2 |[M:1/4][K:treble] F>F | %11
[M:4/4] A2 G2 F2 E2 | E4 D2 F>A | G2 F2 E2 D2 |[M:3/4] D4[K:bass] C2 |[M:1/4] z z/ C/ | %16
[M:4/4] [D,A,D]3 [D,A,D] [E,A,C]3 [E,A,C] | [F,A,D]2 [F,A,D]2 [G,B,D]2 [E,A,]2 | %18
 [D,A,]3 [F,D][K:treble] [G,B,G]2 [A,E]2 |[M:3/4][K:bass] [D,A,]4 z2 |] %20
V:3
 x8 | x8 | z4 z2 [C,A,]2 | x8 |[M:3/4] x6 |[M:1/4] [A,,A,]2 |[M:4/4] x8 | x8 | x4[K:treble] x4 | %9
[M:3/4][K:bass] x6 |[M:1/4][K:treble] x2 |[M:4/4] x8 | x8 | x8 |[M:3/4] x4[K:bass] x2 | %15
[M:1/4] [A,,A,]2 |[M:4/4] x8 | x8 | x4[K:treble] x4 |[M:3/4][K:bass] x6 |] %20

